!!!OTL: Alouette
!!!COM: unknown
!!!ODT: 
!!!YOR: The Folksong Fake Book
!!!YOY: 2000
!!!AST: Folk song
!!!YEC: Brian Luke, 2001
**kern	**harm
*k[f#c#]	*k[f#c#]
*M4/4	*M4/4
*D:	*D:
*>A	*>A
=1	=1
4.d	I
8e	.
4f#	.
4f#	.
=2	=2
8e	V7
8d	.
8e	.
8f#	.
4d	I
4A	.
=3	=3
4.d	.
8e	.
4f#	.
4f#	.
=4	=4
8e	V7
8d	.
8e	.
8f#	.
2d	I;
*>B	*>B
=5	=5
8d	I
8e	.
8f#	.
8g	.
8a	.
8a	.
4a	.
=6	=6
8a	V7
8b	.
8a	.
8g	.
8f#	I
8e	.
8d	.
8r	.
=7	=7
8a	V7;
8a	.
4a	.
8A	.
8A	.
4A	.
=8	=8
1a;	.
*>A	*>A
=9	=9
4.d	I
8e	.
4f#	.
4f#	.
=10	=10
8e	V7
8d	.
8e	.
8f#	.
4d	I
4A	.
=11	=11
4.d	.
8e	.
4f#	.
4f#	.
=12	=12
8e	V7
8d	.
8e	.
8f#	.
2d	I;
*-	*-
